icon-svg/echo-dot-gen-4-clock.svg

<svg xmlns="http://www.w3.org/2000/svg" fill="#44739e" viewBox="0 0 24 24"><path d="M6.01 19.751s.433.682.663.721a24.23 24.23 0 0 0 5.33.536 21.95 21.95 0 0 0 5.4-.561 7.14 7.14 0 0 1 .771-.693 30.6 30.6 0 0 1-6.1.587 30.4 30.4 0 0 1-6.064-.59m15.455-7.704c-.634 2.537-4.775 6.446-10.831 6.8-3.554.206-5.469-.479-6.953-1.987a12.58 12.58 0 0 0 1.664 2.3 20.8 20.8 0 0 0 5.816.737c5.9.041 7.683-.79 7.683-.79a9.275 9.275 0 0 0 2.621-7.06m-14.369.718.123-.212h.472V11.35h-.42l-.123-.211-.123.211h-.47v1.203h.418zm5.475 5.409c3.185-.61 7.924-3.111 8.826-6.873.415-1.731-2.9-8.951-10.172-8.27C3.813 3.726 1 12.076 3.262 15.781c1.879 3.076 6.307 2.968 9.309 2.393m-.278-5.268.123-.213-.123-.211v-1.343l.179-.284.123-.211h.479l.123.211.123-.211h.468l.18.211.123.213.06 1.485-.123.212.123.212v1.343l-.18.284-.123.212h-.478l-.123-.212-.179.142H12.6l-.179-.213-.121-.283Zm-.338-1.839L12 12.553l-.123.212.123.212v1.343l-.123.284-.123.212h-.474l-.123-.212-.123.212h-.48l-.178-.212-.18-.354v-1.343l.123-.213-.115-.205v-1.35l.123-.284.123-.211h.478l.123.211.123-.211h.478l.18.211zM9 12.129c.06-.07.06-.07.123-.07s.123 0 .123.141a.288.288 0 0 1 .06.211.26.26 0 0 0-.06.142c-.059.071-.059.071-.123.071s-.123 0-.123-.071a.4.4 0 0 1 0-.424m-.064.919c.06-.071.06-.071.123-.071s.123 0 .123.071a.3.3 0 0 1 .059.213c.065.141.005.211.005.283-.059.07-.059.07-.123.07A.142.142 0 0 1 9 13.472c0-.07-.123-.141-.123-.211a.29.29 0 0 1 .059-.213m-2.68-.07.123-.211-.123-.213V11.28l.123-.28.123-.213h.479L7.1 11l.122-.213H7.7l.184.213.123.211-.017 1.413-.123.211.123.213v1.274l-.123.212-.179.213h-.475l-.123-.213-.123.213H6.5l-.18-.213-.059-.282Zm-1.977.07.179-.213-.123-.211V11.35l.123-.211.123-.213h.476l.123.213.123-.213h.479l.123.213.123.211-.012 1.274-.123.211.123.213v1.274l-.123.212-.122.213H5.3l-.123-.213-.123.213h-.473l-.181-.213-.123-.212Zm2.817 1.415.123-.213h.472v-1.202h-.42l-.123-.213-.123.213h-.47v1.202h.418Zm-2.457-.772.299-.708h.18v.426l-.36.848h.299l.123.212.123-.212h.418v-1.274l.123-.141-.123-.212.003-.714-.299.778h-.122v-.424l.358-.92h-.358l-.123-.135-.123.142-.418.071v1.202l-.123.212.123.212zm6.76-1.071h-.18v-.495l.42-.848h-.359l-.123-.213-.123.213h-.48v1.273l-.123.213.123.211-.059.708.359-.778h.18v.424l-.42.92h.359l.123.212.123-.212h.479v-1.274l.123-.211-.123-.213.06-.708zm1.196 1.065.359-.778h.18l-.06.424-.359.919h.298l.18.213.123-.213h.472v-1.343l.123-.213-.123-.141.06-.782-.357.849h-.18v-.495l.418-.92h-.359l-.123-.211-.123.211h-.478l-.051 1.348-.123.212.123.212zm.158-9.64.546-.159.274.334.163-.042-.274-.339.472-.138-.071-.12-.493.144-.228-.282-.181.032.245.298-.518.152Z"/></svg>

<?xml version="1.0" encoding="UTF-8"?>
<svg width="24px" fill="#44739e" height="24px" viewBox="0 0 24 24" version="1.1" xmlns="http://www.w3.org/2000/svg" xmlns:xlink="http://www.w3.org/1999/xlink">
            <path d="m 6.01,19.751 c 0,0 0.433,0.682 0.663,0.721 a 24.228,24.228 0 0 0 5.33,0.536 21.948,21.948 0 0 0 5.4,-0.561 7.139,7.139 0 0 1 0.771,-0.693 30.619,30.619 0 0 1 -6.1,0.587 30.406,30.406 0 0 1 -6.064,-0.59 z m 15.455,-7.704 c -0.634,2.537 -4.775,6.446 -10.831,6.8 C 7.08,19.053 5.165,18.368 3.681,16.86 a 12.579,12.579 0 0 0 1.664,2.3 20.8,20.8 0 0 0 5.816,0.737 c 5.9,0.041 7.683,-0.79 7.683,-0.79 a 9.275,9.275 0 0 0 2.621,-7.06 z M 7.096,12.765 7.219,12.553 H 7.691 V 11.35 H 7.271 L 7.148,11.139 7.025,11.35 h -0.47 v 1.203 h 0.418 z m 5.475,5.409 c 3.185,-0.61 7.924,-3.111 8.826,-6.873 C 21.812,9.57 18.497,2.35 11.225,3.031 3.813,3.726 1,12.076 3.262,15.781 c 1.879,3.076 6.307,2.968 9.309,2.393 z m -0.278,-5.268 0.123,-0.213 -0.123,-0.211 v -1.343 l 0.179,-0.284 0.123,-0.211 h 0.479 l 0.123,0.211 0.123,-0.211 h 0.468 l 0.18,0.211 0.123,0.213 0.06,1.485 -0.123,0.212 0.123,0.212 v 1.343 l -0.18,0.284 -0.123,0.212 H 13.37 l -0.123,-0.212 -0.179,0.142 H 12.6 L 12.421,14.533 12.3,14.25 Z M 11.955,11.067 12,12.553 11.877,12.765 12,12.977 v 1.343 l -0.123,0.284 -0.123,0.212 H 11.28 l -0.123,-0.212 -0.123,0.212 h -0.48 l -0.178,-0.212 -0.18,-0.354 v -1.343 l 0.123,-0.213 -0.115,-0.205 v -1.35 l 0.123,-0.284 0.123,-0.211 h 0.478 l 0.123,0.211 0.123,-0.211 h 0.478 l 0.18,0.211 z M 9,12.129 c 0.06,-0.07 0.06,-0.07 0.123,-0.07 0.063,0 0.123,0 0.123,0.141 a 0.288,0.288 0 0 1 0.06,0.211 0.258,0.258 0 0 0 -0.06,0.142 C 9.187,12.624 9.187,12.624 9.123,12.624 9.059,12.624 9,12.624 9,12.553 a 0.4,0.4 0 0 1 0,-0.424 z m -0.064,0.919 c 0.06,-0.071 0.06,-0.071 0.123,-0.071 0.063,0 0.123,0 0.123,0.071 a 0.3,0.3 0 0 1 0.059,0.213 c 0.065,0.141 0.005,0.211 0.005,0.283 -0.059,0.07 -0.059,0.07 -0.123,0.07 A 0.142,0.142 0 0 1 9,13.472 C 9,13.402 8.877,13.331 8.877,13.261 A 0.291,0.291 0 0 1 8.936,13.048 Z M 6.256,12.978 6.379,12.767 6.256,12.554 V 11.28 L 6.379,11 6.502,10.787 H 6.981 L 7.1,11 7.222,10.787 H 7.7 L 7.884,11 8.007,11.211 7.99,12.624 7.867,12.835 7.99,13.048 v 1.274 L 7.867,14.534 7.688,14.747 H 7.213 L 7.09,14.534 6.967,14.747 H 6.5 L 6.32,14.534 6.261,14.252 Z M 4.279,13.048 4.458,12.835 4.335,12.624 V 11.35 l 0.123,-0.211 0.123,-0.213 h 0.476 l 0.123,0.213 0.123,-0.213 h 0.479 l 0.123,0.213 0.123,0.211 -0.012,1.274 -0.123,0.211 0.123,0.213 v 1.274 L 5.893,14.534 5.771,14.747 H 5.3 L 5.177,14.534 5.054,14.747 H 4.581 L 4.4,14.534 4.277,14.322 Z M 7.096,14.463 7.219,14.25 H 7.691 V 13.048 H 7.271 L 7.148,12.835 7.025,13.048 H 6.555 V 14.25 H 6.973 Z M 4.639,13.691 4.938,12.983 h 0.18 v 0.426 l -0.36,0.848 H 5.057 L 5.18,14.469 5.303,14.257 H 5.721 V 12.983 L 5.844,12.842 5.721,12.63 5.724,11.916 5.425,12.694 H 5.303 V 12.27 L 5.661,11.35 H 5.303 L 5.18,11.215 5.057,11.357 4.639,11.428 v 1.202 l -0.123,0.212 0.123,0.212 z m 6.76,-1.071 h -0.18 v -0.495 l 0.42,-0.848 H 11.28 l -0.123,-0.213 -0.123,0.213 h -0.48 v 1.273 l -0.123,0.213 0.123,0.211 -0.059,0.708 0.359,-0.778 h 0.18 v 0.424 l -0.42,0.92 h 0.359 l 0.123,0.212 0.123,-0.212 h 0.479 v -1.274 l 0.123,-0.211 -0.123,-0.213 0.06,-0.708 z m 1.196,1.065 0.359,-0.778 h 0.18 l -0.06,0.424 -0.359,0.919 h 0.298 l 0.18,0.213 0.123,-0.213 h 0.472 v -1.343 l 0.123,-0.213 -0.123,-0.141 0.06,-0.782 -0.357,0.849 h -0.18 v -0.495 l 0.418,-0.92 H 13.37 l -0.123,-0.211 -0.123,0.211 h -0.478 l -0.051,1.348 -0.123,0.212 0.123,0.212 z M 12.753,4.045 13.299,3.886 13.573,4.22 13.736,4.178 13.462,3.839 13.934,3.701 13.863,3.581 13.37,3.725 13.142,3.443 12.961,3.475 13.206,3.773 12.688,3.925 Z"/>

</svg>
